src/view/frontend/web/svg/heroicons/solid/academic-cap.svg

<svg viewBox="0 0 20 20" fill="currentColor" xmlns="http://www.w3.org/2000/svg">
<path d="M10.3939 2.08085C10.1424 1.97305 9.85763 1.97305 9.60608 2.08085L2.60608 5.08085C2.2384 5.23843 2 5.59997 2 6C2 6.40003 2.2384 6.76157 2.60608 6.91915L5.25037 8.05241C5.34653 7.94347 5.46706 7.85473 5.60608 7.79515L9.60608 6.08087C10.1137 5.86331 10.7016 6.09846 10.9191 6.60609C11.1367 7.11372 10.9015 7.7016 10.3939 7.91916L7.66668 9.08797L9.60608 9.91915C9.85763 10.027 10.1424 10.027 10.3939 9.91915L17.3939 6.91915C17.7616 6.76157 18 6.40003 18 6C18 5.59997 17.7616 5.23843 17.3939 5.08085L10.3939 2.08085Z" />
<path d="M3.31004 9.39673L5 10.121V14.2226C4.65723 14.1449 4.30705 14.0867 3.95071 14.0494C3.48094 14.0001 3.1097 13.6289 3.06044 13.1591C3.02046 12.7778 3 12.391 3 11.9998C3 11.1033 3.10741 10.2315 3.31004 9.39673Z" />
<path d="M9.29996 16.5725C8.62708 15.9129 7.85167 15.3584 7 14.9351V10.9781L8.81824 11.7574C9.57289 12.0808 10.4271 12.0808 11.1818 11.7574L16.69 9.39673C16.8926 10.2315 17 11.1033 17 11.9998C17 12.391 16.9795 12.7778 16.9396 13.1591C16.8903 13.6289 16.5191 14.0001 16.0493 14.0494C13.9765 14.2667 12.1124 15.188 10.7 16.5725C10.3112 16.9537 9.68881 16.9537 9.29996 16.5725Z" />
<path d="M6 18C6.55228 18 7 17.5523 7 17V14.9351C6.37136 14.6227 5.70117 14.3817 5 14.2226V17C5 17.5523 5.44772 18 6 18Z" />
</svg>

<svg xmlns="http://www.w3.org/2000/svg" viewBox="0 0 20 20" fill="currentColor">
  <path d="M10.394 2.08a1 1 0 00-.788 0l-7 3a1 1 0 000 1.84L5.25 8.051a.999.999 0 01.356-.257l4-1.714a1 1 0 11.788 1.838L7.667 9.088l1.94.831a1 1 0 00.787 0l7-3a1 1 0 000-1.838l-7-3zM3.31 9.397L5 10.12v4.102a8.969 8.969 0 00-1.05-.174 1 1 0 01-.89-.89 11.115 11.115 0 01.25-3.762zM9.3 16.573A9.026 9.026 0 007 14.935v-3.957l1.818.78a3 3 0 002.364 0l5.508-2.361a11.026 11.026 0 01.25 3.762 1 1 0 01-.89.89 8.968 8.968 0 00-5.35 2.524 1 1 0 01-1.4 0zM6 18a1 1 0 001-1v-2.065a8.935 8.935 0 00-2-.712V17a1 1 0 001 1z"/>
</svg>
